en/_assets/code-assistant/jb-icon-small.svg

<svg width="14" height="14" viewBox="0 0 14 14" fill="none" xmlns="http://www.w3.org/2000/svg">
<path fill-rule="evenodd" clip-rule="evenodd" d="M4.375 12.9062L6.34375 11.1562H11.0469L12.3156 4.8125H14L12.25 13.5625H1.3125L1.79375 11.1562H3.28125L4.375 12.9062Z" fill="#6C707E"/>
<path fill-rule="evenodd" clip-rule="evenodd" d="M4.59375 10.9375L6.5625 9.1875H10.0625L11.8125 0.4375H1.75L0 9.1875H3.5L4.59375 10.9375ZM5.03125 7.87521L8.96875 1.75021H6.78125L2.84375 7.87521H5.03125Z" fill="#6C707E"/>
</svg>

<svg xmlns="http://www.w3.org/2000/svg" width="14" height="14" fill="none" viewBox="0 0 14 14">
    <path fill="#6C707E" fill-rule="evenodd" d="m4.375 12.906 1.969-1.75h4.703l1.269-6.344H14l-1.75 8.75H1.312l.482-2.406H3.28l1.094 1.75Z" clip-rule="evenodd"/>
    <path fill="#6C707E" fill-rule="evenodd" d="m4.594 10.938 1.968-1.75h3.5l1.75-8.75H1.75L0 9.188h3.5l1.094 1.75Zm.437-3.063L8.97 1.75H6.78L2.844 7.875H5.03Z" clip-rule="evenodd"/>
</svg>
